X:4
T:Boat from The Island
M:4/4
L:1/8
N:played AABBCCC
Q:180
K: Bb
Bde 
|: fffd eeed | dedc B2de | fffd eeed | def2 fBde | fffd eeed | dedc B2B2 | fgfe d2c2 |1 B3B BBde :|2 B3B B2 F2 
|: B3B B2 AB | c3B cde2 | d3d dcde | f3f gfed | c3c dedc |1 B3B B2F2 :|2 B3B B2AB 
|: c3e dcBA | G3F GABA |1 B3B BBAB :|2 B3z A3z | B6 ||
